X:681
T:Lucky Scaup
C:Joe Buchanan's Scottish Tome - Page 210.1
I:210 1
C:Jimmy Shand
Z:Carl Allison
S:Reels
R:Reel
L:1/8
M:C
K:D
"D"D2 DF "A7"E2 EG | "D"F2 FA "G"G2 GB | "D"A2 f2 gfed | "A"f2 e2 e2 f2 |
"D"D2 DF "A7"E2 EG | "D"F2 FA "G"G2 GB | "D"A2 a2 "A7"gfed | "D"f2 d2 d2 z2 :|
fg | "D"a2 d2 "G"b2 d2 | "D"a2 gf "A"g2 fg | "D"g2 d2 "G"bagf | "Em"g2 e2 "A"e2 fg |
"D"a2 d2 "G"b2 d2 | "D"a2 gf "A"g2 fe | "D"A2 a2 "A"gfed | "D"f2 d2 "D"d2 fg |
"D"a2 d2 "G"b2 d2 | "D"a2 gf "A"g2 fg | "D"a2 d2 "G"bagf | "Em"g2 e2 "A"e2 f2 |
"D"D2 DF "A7"E2 EG | "D"F2 FA "G"G2 GB | "D"A2 a2 "A"gfed | "D"f2 d2 "D"d2 z2 |]

